X: 1
T:Mama's Pet
R:reel
D:Michael McGoldrick: Morning Rory
D:Frankie Gavin: Frankie Goes to Town
Z:id:hn-reel-598
M:C|
K:D
G2BG EGDE|G2BG dGBA|G2BG EGDG|Bded B2AB:|
dBGB d2de|dBGB ~e3g|dBGB deBd|eged B2AB|
dBGB d2Bd|g2bg eBdB|~G3B ~A3B|d2gd B2AB||
